svg/ellipsis.svg

<svg height="1024" width="768" xmlns="http://www.w3.org/2000/svg">
  <path d="M640 320c-64 0-448 0-512 0s-128 64-128 128 0 64 0 128 64 128 128 128 448 0 512 0 128-64 128-128 0-64 0-128-64-128-128-128z m-384 256h-128v-128h128v128z m192 0h-128v-128h128v128z m192 0h-128v-128h128v128z" />
</svg>

<svg height="1024" width="768" xmlns="http://www.w3.org/2000/svg">
  <path d="M640 320c-102.75 0-512 0-512 0S0 320 0 448s0 128 0 128 0 128 128 128 512 0 512 0 128-4 128-128c0-124.031 0-128 0-128S764 320 640 320zM256 576H128V448h128V576zM448 576H320V448h128V576zM640 576H512V448h128V576z" />
</svg>
